X:1
T:Quis audivit
T:Chiara Margarita Cozzolani
T:1602-c.1677
T:Source: Museo internazionale e biblioteca della musica - Catalogo Gaspari.htm
T:Quis audivit
T:Salmi a Otto Voci concertati (Venice, 1650)
T:Wim Looyestijn - 2016 - May be freely copied for non-commercial use.
T:Wim Looyestijn - 2016 - May be freely copied for non-commercial use.
T:Wim Looyestijn - 2016 - May be freely copied for non-commercial use.
T:Wim Looyestijn - 2016 - May be freely copied for non-commercial use.
T:Wim Looyestijn - 2016 - May be freely copied for non-commercial use.
T:Wim Looyestijn - 2016 - May be freely copied for non-commercial use.
T:Wim Looyestijn - 2016 - May be freely copied for non-commercial use.
T:Wim Looyestijn - 2016 - May be freely copied for non-commercial use.
T:Wim Looyestijn - 2016 - May be freely copied for non-commercial use.
T:Wim Looyestijn - 2016 - May be freely copied for non-commercial use.
T:Wim Looyestijn - 2016 - May be freely copied for non-commercial use.
T:Wim Looyestijn - 2016 - May be freely copied for non-commercial use.
T:Wim Looyestijn - 2016 - May be freely copied for non-commercial use.
T:Wim Looyestijn - 2016 - May be freely copied for non-commercial use.
T:Wim Looyestijn - 2016 - May be freely copied for non-commercial use.
T:Wim Looyestijn - 2016 - May be freely copied for non-commercial use.
T:Wim Looyestijn - 2016 - May be freely copied for non-commercial use.
C:Chiara Margarita Cozzolani
Z:Wim Looyestijn - 2016 - May be freely copied for non-commercial use.
%%score [ 1 2 3 ] 4
L:1/8
Q:1/4=120
M:3/1
K:C
V:1 alto1 nm="Canto  Primo" snm="C1"
V:2 alto1 nm="Canto  secondo" snm="C2"
V:3 bass nm="Basso" snm="B"
V:4 bass nm="Bass" snm="BC"
V:1
 x24 | x24 | x24 |[M:3/1][Q:1/4=480][Q:1/4=480][Q:1/4=480][Q:1/4=480] z8 d8 c8 | B16 B8 | %5
w: |||Quis au-|di- vit|
 B8 A8 B8 | G8 G8 z8 | z24 | z24 | z24 | z8 d8 c8 | B8 G8 z8 | z24 | z8 A8 G8 | ^F16 F8 | %15
w: un- quam *|ta- le,||||quis au-|di- vit,||quis au-|di- vit|
 ^F8 E8 F8 | D8 D8 z8 | z24 | z8 A8 G8 | ^F8 D8 z8 | z24 | z8 B8 A8 | G16 G8 | G8 ^F8 G8 | %24
w: un- quam *|ta- le,||quis au-|di- vit,||quis au-|di- vit|un- quam ta-|
 G8 G8 d8 | B16 B8 | B8 A8 B8 | G12 G4 G8 || z8 d8 d8 | d12 c2 B2 A8 | z8 d8 d8 | d16 ^c8 | %32
w: le, quis vi-|dit hu-|ic * *|si- mi- le?|Ob- stu-|pe- sce, * *|ob- stu-|pe- sce|
 d16 d8 | z8 d8 d8 | d12 c2 B2 A8 | z8 d8 d8 | d16 ^c8 | d16 d8 | A12 B4 c8 | d16 c8 | B12 c4 d8 | %41
w: cæ- lum|ad- mi-|ra- re, * *|ad- mi-|ra- re|ter- ra|sus- pi- ce|or- bis,|sus- pi- ce|
 e16 d8 | c12 d4 e8 | f12 e4 d8 | c8 B16 | A16 z8 | z24 | A12 B4 c8 | d16 c8 | B12 c4 d8 | %50
w: or- bis,|sus- pi- ce|or- bis u-|ni- ver-|se,||sus- pi- ce|or- bis,|sus- pi- ce|
 e12 d4 c8 | B8 A16 | G16 z8 |[M:4/4][Q:1/4=120][Q:1/4=120][Q:1/4=120][Q:1/4=120] z8 | z8 | z8 | %56
w: or- bis u-|ni- ver-|se.||||
 z2 B4 B2 | z Bcd e2 e2 | e^d e^f ga/g/ f2 | e4 z4 | z4 B4- | B2 B2 c4- | c3 d/c/ B4- | %63
w: Ca- ro|us- que ad De- um|a- * * * * * * scen-|dit,|Ver-|* bum ca-||
 B2 B2 B3 A |[M:3/1][Q:1/4=480][Q:1/4=480][Q:1/4=480][Q:1/4=480] B16 z8 | B8 B8 B8 | A12 A4 A8 | %67
w: * ro fac- tum|est.|Vir- go quem|ge- nu- it,|
 z8 z8 c8 | B12 B4 B8 | z8 c4 B4 A4 G4 | G8 ^F16 | E16 z8 | e8 e8 e8 | d12 d4 d8 | z8 z8 f8 | %75
w: quem|ge- nu- it|a- * do- *|ra- *|vit,|Vir- go quem|ge- nu- it,|quem|
 e12 e4 e8 | z8 f4 e4 d4 c4 | c8 B16 | A16 z8 | z24 | z24 | z24 | z24 | z8 A8 A8 | %84
w: ge- nu- it|a- * do- *|ra- *|vit,|||||o a-|
 B4 A4 B4 c4 d4 e4 | f12 e4 g8 | ^f8 e12 d4 | d16 z8 | z8 A8 A8 | B4 A4 B4 c4 d4 e4 | ^f8 f8 z8 | %91
w: scen- * * * * *|* sum su-|bli- mis- si-|mum,|o a-|scen- * * * * *|* sum,|
 z8 D8 D8 | E4 D4 E4 F4 G4 A4 | B8 B8 z8 | z24 | z24 | z8 D8 D8 | E4 D4 E4 F4 G4 A4 | B8 B8 z8 | %99
w: o a-|scen- * * * * *|* sum,|||o a-|scen- * * * * *|* sum,|
 z8 G8 G8 | A4 G4 A4 B4 c4 d4 | e12 d4 f8 | e8 d12 c4 | c16 z8 | %104
w: o a-|scen- * * * * *|* sum su-|bli- mis- si-|mum.|
[M:4/4][Q:1/4=80][Q:1/4=80][Q:1/4=80][Q:1/4=80] z8 | z8 | z8 | z8 | z8 | z8 | z8 | z8 | z8 | %113
w: |||||||||
 z2 AA A2 A2 | z GG^F F2 F2 | z ^FGA B>A G2 | z G cc/B/ A4 | G4 z4 | z8 | z8 | z8 | z8 | z8 | z8 | %124
w: Ob- mu- te- scit|in si- nu Ma- tris,|qui sem- per lo- qui- tus|in gre- mi- o Pa-|tris.|||||||
 z8 | z8 | z8 | z4 z2 z B | B2 BB B2 AB | G2 EG ^F/E/F/G/ E/D/E/F/ | ^D2 z d c/B/c/d/ B/A/B/c/ | %131
w: |||Va-|gi- tus et la- chri- mas|fun- dit qui ri- * * * sus * * *|est, qui ri- * * * sus * * *|
 A^F B/c/B/A/ GA/B/ c/d/c/B/ | AB/c/ d/e/d/c/ B3 c/d/ | e/d/e/f/ gA A4 | G4 z4 | %135
w: est et gau- * * * * * * * * * *|(au)- * * * * * * * di- um|Pa- * * * * ra- di-|si.|
[M:3/1][Q:1/4=480][Q:1/4=480][Q:1/4=480][Q:1/4=480] z8 d16- | d12 c2 B2 A8 | z24 | z8 e16- | %139
w: Proh,|||proh,|
 e12 d2 c2 B8 | e8 B12 ^c4 | A16 A8 | z24 | z8 A16- | A12 G2 F2 E8 | A8 E12 ^F4 | D12 D4 D8 | %147
w: |quan- ta ma-|jes- tas,||proh,||quan- ta hu-|mi- li- tas.|
[M:4/4][Q:1/4=80][Q:1/4=80][Q:1/4=80][Q:1/4=80] z8 | z8 | z8 | z8 | z8 | z2 BB/c/ dd/B/ c>d | %153
w: |||||in- tus the- sau- ri di- vi- ni-|
 e2 e2 z E2 ^F/G/ | A>A A2 z ^F G>A | E4 D4 | z8 | z d cd/c/ BB AB/A/ | G4 z g fg/f/ | %159
w: ta- tis fo- ris pau-|pe- ri- es hu- ma- ni-|ta- tis,||o, * * * * * * * *|* o, * * *|
 ee de/d/ c2 z e | ce d2 c2 z e | ce d2 c2 ee | d>c B B/A/ A3 G | G8 | %164
w: * * * * * * o|ve- re par- tum, o|ve- re par- tum De- o|hu- mi- ne di- * gnis- si-|mum.|
[M:3/1][Q:1/4=480][Q:1/4=480][Q:1/4=480][Q:1/4=480] z8 d8 c8 | B16 B8 | B8 A8 B8 | G8 G8 z8 | z24 | %169
w: Quis au-|di- vit|un- quam ta-|* le?||
 z24 | z8 d8 c8 | B8 G8 z8 | z8 A8 G8 | ^F16 F8 | ^F8 E8 F8 | D8 D8 z8 | z24 | z8 A8 G8 | %178
w: |quis au-|di- vit,|quis au-|di- vit|un- quam *|ta- le,||quis au-|
 ^F8 D8 z8 | z24 | z8 B8 A8 | G16 G8 | G8 ^F8 G8 | G8 G8 d8 | B16 B8 | B8 A8 B8 | G12 G4 G8 | %187
w: di- vit,||quis au-|di- vit|un- quam *|ta- le? Quis|vi- dit|hu- ic *|si- mi- le?|
[M:4/4][Q:1/4=80][Q:1/4=80][Q:1/4=80][Q:1/4=80] z2 B2 B2 AG | A6 AB | G3 G ^F2 FF | %190
w: Nos quo- que de-|vo- ti et|hu- mi- les a- do-|
 G^F G/F/ G/A/ F>F F2 | z2 z ^F G2 GG | A2 AA B>B BG | A2 AA B2 B2 | z2 z e cc z d | %195
w: re- mus cum * pas- * to- ri- bus.|Lau- de- mus, lau-|de- mus cum an- ge- lis, lau-|de- mus, lau- de- mus,|lau- de- mus, lau-|
 BB z c AA z B | G2 GG A2 AA | B>B BA E2 EE | ^F2 FA d/e/d/c/ B/G/A/B/ | %199
w: de- mus, lau- de- mus, lau-|de- mus, lau- de- mus cum|an- ge- lis, lau- de- mus, lau-|de- mus, lau de- * * * * * * *|
 c/d/c/B/ A/^F/G/A/ B/c/B/A/ G/E/F/G/ | A/B/A/G/ ^F/D/E/F/ G2 GA | E2 EE ^F>F FB | A2 AA B2 B2 | %203
w: |(e)- * * * * * * * * mus, lau-|de- mus cum an- ge- lis, lau-|de- mus, lau- de- mus|
 BBBB A2 A2 | z AAA B>B c2 | B3 A A2 z E | AA A>G ^F/G/A/G/ F/G/E/F/ | DD z D GG G>F | %208
w: re- gem Sa- lo- mo- nem,|in di- a- de- ma- te|car- ne- o, quo|il- lum co- ro- na- * * * * * * *|* vit, quo il- lum co- ro-|
 E/F/G/F/ E/F/D/E/ CC z A | dd d>c BB z B | ee e>d c/d/e/d/ c/d/B/c/ | AAAA d/e/^f/e/ d/e/c/d/ | %212
w: na- * * * * * * * * vit, quo|il- lum co- ro- na- vit, quo|il- lum co- ro- na- * * * * * * *|* vit, co- ro- na- * * * * * * *|
 BB z2 z2 BB | cdcB A2 A2 | d4 d2 eA | A8 | B16 |] %217
w: * vit, co- ro-|na- vit Ma- ter su- a|Vir- go Ma- *|ri-|a.|
V:2
 x24 | x24 | x24 |[M:3/1] z24 | z24 | z24 | z8 z8 d8 | B16 B8 | B8 A8 B8 | G12 G4 G8 | z24 | %11
w: ||||||Quis|vi- dit|hu- ic *|si- mi- le?||
 z8 z8 G8 | ^F8 D8 z8 | z24 | z24 | z8 z8 A8 | ^F16 F8 | ^F8 E8 F8 | D12 D4 D8 | z8 z8 A8 | %20
w: quis|vi- dit,|||quis|vi- dit|hu- ic *|si- mi- le,|quis|
 ^F8 D8 z8 | z8 d8 c8 | B16 B8 | B8 A8 B8 | G8 G8 B8 | G16 G8 | G8 ^F8 G8 | G12 G4 G8 || z8 B8 B8 | %29
w: vi- dit,|quis au-|di- vit|un- quam ta-|le, quis vi-|dit hu-|ic * *|si- mi- le?|Ob- stu-|
 A16 A8 | z8 B8 B8 | A8 G16 | ^F16 F8 | z8 B8 B8 | A16 A8 | z8 B8 B8 | A8 G16 | ^F16 F8 | %38
w: pe- sce,|ob- stu-|pe- sce|cæ- lum|ad- mi-|ra- re,|ad- mi-|ra- re|ter- ra|
 ^F12 G4 A8 | B16 B8 | G12 A4 B8 | c16 B8 | A12 B4 c8 | d12 c4 B8 | A8 A12 ^G4 | A16 z8 | z24 | %47
w: sus- pi- ce|or- bis,|sus- pi- ce|or- bis,|sus- pi- ce|or- bis u-|ni- ver- se,|||
 ^F12 G4 A8 | B16 A8 | G12 A4 B8 | c12 B4 A8 | G8 G12 ^F4 | G16 z8 |[M:4/4] z8 | z8 | z8 | %56
w: sus- pi- ce|or- bis,|sus- pi- ce|or- bis u-|ni- ver- se.|||||
 z2 G4 G2 | z GAB c2 c2 | cB cd e^f/e/ ^d2 | e4 z4 | G6 G2 | G6- GA/G/ | ^F6 F2 | E4- E3 E | %64
w: Ca- ro|us- que ad De- um|a- * * * * * * scen-|dit,|Ver- bum|ca- * * *|* ro|fac- * tum|
[M:3/1] ^D16 z8 | G8 G8 G8 | ^F12 F4 F8 | z8 z8 A8 | G12 G4 G8 | z8 A4 G4 ^F4 E4 | E16 ^D8 | %71
w: est.|Vir- go quem|ge- nu- it,|quem|ge- nu- it|a- * do- *|ra- *|
 E16 z8 | c8 c8 c8 | B12 B4 B8 | z8 z8 d8 | c12 c4 c8 | z8 d4 c4 B4 A4 | A16 ^G8 | A16 z8 | z24 | %80
w: vit,|Vir- go quem|ge- nu- it,|quem|ge- nu- it|a- * do- *|ra- *|vit,||
 z24 | z24 | z24 | z8 ^F8 F8 | G4 ^F4 G4 A4 B4 c4 | d12 ^c4 e8 | d8 d12 ^c4 | d16 z8 | z8 ^F8 F8 | %89
w: |||o a-|scen- * * * * *|* sum su-|bli- mis- si-|mum,|o a-|
 G4 ^F4 G4 A4 B4 c4 | d8 d8 z8 | z8 B,8 B,8 | C4 B,4 C4 D4 E4 F4 | G8 G8 z8 | z24 | z24 | %96
w: scen- * * * * *|* sum,|o a-|scen- * * * * *|* sum,|||
 z8 B,8 B,8 | C4 B,4 C4 D4 E4 F4 | G8 G8 z8 | z8 E8 E8 | F4 E4 F4 G4 A4 B4 | c12 B4 d8 | %102
w: o a-|scen- * * * * *|* sum,|o a-|scen- * * * * *|* sum su-|
 c8 c12 B4 | c16 z8 |[M:4/4] z8 | z8 | z8 | z8 | z8 | z2 cc cc c2- | c_B B>A A>A A2 | %111
w: bli- mis- si-|mum.||||||So- ci- a- tur bru-|* tis a- ni- man- ti- bus|
 z A c>_B A2 Bc | d3 e/f/ G4 | F4 z4 | z8 | z8 | z8 | z8 | z8 | z8 | z8 | z8 | z8 | E2 EF G>G AB | %124
w: qui co- li- tur ab an-|ge- li- cis cho-|ris.||||||||||Pan- nis a- gres- ti- bus in-|
 c/G/A/B/ c/B/c/d/ c3 B | B4 z2 AB | G>^F E2 z2 c/B/ A/G/ | ^F4 E4 | z8 | z8 | z8 | z8 | z8 | z8 | %134
w: vol- * * * * * * * * vi-|tur, sed a|re- gi- bus vi- * si- *|ta- tur.|||||||
 z8 |[M:3/1] B16- B4 A2 G2 | ^F8 z8 z8 | z24 | c16- c4 B2 A2 | ^G16 z8 | A8 A8 ^G8 | A16 A8 | z24 | %143
w: |Proh, * * *|||proh, * * *||quan- ta ma-|jes- tas,||
 ^F16- F4 E2 D2 | ^C16 z8 | D8 D8 ^C8 | D12 D4 D8 |[M:4/4] z4 A2 GA | B2 B2 z E2 ^F/G/ | ^F3 E E4 | %150
w: proh, * * *||quan- ta hu-|mi- li- tas.|in- tus ma-|jes- tas, fo- ris hu-|mi- li- tas,|
 z8 | z8 | z8 | z8 | z8 | z8 | z4 z d cd/c/ | BB AB/A/ G4 | z g fg/f/ ee de/d/ | c4 z2 z c | %160
w: ||||||o, * * *||o, * * * * * * * *|* o|
 Ac c>B c2 z c | Ac c>B c2 cc | B>A GG G3 ^F | G8 |[M:3/1] z24 | z24 | z24 | z8 z8 d8 | B16 B8 | %169
w: ve- re par- * tum, o|ve- re par- * tum De- o|hu- mi- ne di- gnis- si-|mum.||||Quis|vi- dit|
 B8 A8 B8 | G12 G4 G8 | z8 z8 G8 | ^F8 D8 z8 | z24 | z8 z8 A8 | ^F16 F8 | ^F8 E8 F8 | D12 D4 D8 | %178
w: hu- ic *|si- mi- le?|quis|vi- dit,||quis|vi- dit|hu- ic *|si- mi- le,|
 z8 z8 A8 | ^F8 D8 z8 | z8 d8 c8 | B16 B8 | B8 A8 B8 | G8 G8 B8 | G16 G8 | G8 ^F8 G8 | G12 G4 G8 | %187
w: quis|vi- dit,|quis au-|di- vit|un- quam *|ta- le? Quis|vi- dit|hu- ic *|si- mi- le?|
[M:4/4] z2 G2 G2 ^FE | ^F6 FG | E3 E ^D2 DD | E^F E/^D/ E/F/ D>D D2 | z2 z ^D E2 EG | %192
w: Nos quo- que de-|vo- ti et|hu- mi- les a- do-|re- mus cum * pas- * to- ri- bus.|Lau- de- mus, lau-|
 G2 G^F G>G GG | G2 G^F G2 G2 | z2 z c AA z B | GG z A ^FF z G | E2 EG G2 G^F | G>G GD D2 D^C | %198
w: de- mus cum an- ge- lis, lau-|de- mus, lau- de- mus,|lau- de- mus, lau-|de- mus, lau- de- mus, lau-|de- mus, lau- de- mus cum|an- ge- lis, lau- de- mus, lau-|
 D2 D^F B/c/B/A/ G/E/F/G/ | A/B/A/G/ ^F/D/E/F/ G/A/G/F/ E/C/D/E/ | ^F/G/F/E/ D/B,/C/D/ E2 ED | %201
w: de- mus, lau de- * * * * * * *||(e)- * * * * * * * * mus, lau-|
 D2 D^C D>D DG | G2 G^F G2 G2 | DDDG ^F2 F2 | z ^FFF G>G A2 | A3 ^G A4 | z4 z2 z A | %207
w: de- mus cum an- ge- lis, lau-|de- mus, lau- de- mus|re- gem Sa- lo- mo- nem,|in di- a- de- ma- te|car- ne- o,|quo|
 dd d>c B/c/d/c/ B/c/A/B/ | GG z G cc c>B | AA z2 z2 z G | cc c>B A/B/c/B/ A/B/G/A/ | %211
w: il- lum co- ro- na- * * * * * * *|* vit, quo il- lum co- ro-|na- vit, quo|il- lum co- ro- na- * * * * * * *|
 ^F/G/A/G/ F/G/E/F/ DDFF | GG z2 z2 DD | EDEG ^F2 F2 | z2 G4 GG | G6 ^F2 | G16 |] %217
w: * * * * * * * * * vit, co- ro-|na- vit, co- ro-|na- vit Ma- ter su- a|Vir- go Ma-|ri- a.||
V:3
 x24 | x24 | x24 |[M:3/1] z24 | z24 | z24 | z24 | z24 | z24 | z24 | z24 | z24 | z24 | z24 | z24 | %15
w: |||||||||||||||
 z24 | z24 | z24 | z24 | z24 | z24 | z24 | z24 | z24 | z24 | z24 | z24 | z24 || z8 G,8 G,8 | %29
w: |||||||||||||Ob- stu-|
 ^F,16 F,8 | z8 G,8 G,8 | ^F,8 E,16 | D,16 D,8 | z8 G,8 G,8 | ^F,16 F,8 | z8 G,8 G,8 | ^F,8 E,16 | %37
w: pe- sce,|ob- stu-|pe- sce|cæ- lum|ad- mi-|ra- re,|ad- mi-|ra- re|
 D,16 D,8 | z24 | B,,12 C,4 D,8 | E,16 D,8 | C,12 D,4 E,8 | F,16 E,8 | D,24 | A,,8 E,16 | %45
w: ter- ra||sus- pi- ce|or- bis,|sus- pi- ce|or- bis|u-|ni- ver-|
 A,,16 z8 | A,,12 B,,4 ^C,8 | D,16 C,8 | B,,12 C,4 D,8 | E,16 D,8 | C,24 | G,,8 D,16 | G,,16 z8 | %53
w: se,|sus- pi- ce|or- bis,|sus- pi- ce|or- bis|u-|ni- ver-|se.|
[M:4/4] G,4 G,4 | z G,F,G, E,2 D,E, | C,>D, B,,>C, A,,B,,/C,/ B,,>A,, | G,,4 z4 | z8 | z8 | z8 | %60
w: De- us,|us- que ad car- nem de-|scen- * * * * * * * dit.|||||
 E,6 E,2 | E,4- E,3 F,/E,/ | D,6 D,2 | C,4- C,3 C, |[M:3/1] B,,16 z8 | G,,8 G,,8 G,,8 | %66
w: Ver- bum|ca- * * *|* ro|fac- * tum|est.|Vir- go quem|
 D,12 D,4 D,8 | z8 z8 A,,8 | E,12 E,4 E,8 | A,,16 A,,8 | B,,24 | E,,16 z8 | C,8 C,8 C,8 | %73
w: ge- nu- it,|quem|ge- nu- it|a- do-|ra-|vit,|Vir- go quem|
 G,12 G,4 G,8 | z8 z8 D,8 | A,12 A,4 A,8 | D,16 D,8 | E,24 | A,,16 z8 | z8 A,8 G,8 | %80
w: ge- nu- it,|quem|ge- nu- it|a- do-|ra-|vit,|o de-|
 ^F,4 G,4 F,4 E,4 D,4 C,4 | B,,12 A,,4 G,,8 | ^F,,8 A,,12 A,,4 | D,,16 z8 | z24 | z24 | z24 | %87
w: scen- * * * * *|* sum pro-|fun- dis- si-|mum,||||
 z8 A,8 G,8 | ^F,4 G,4 F,4 E,4 D,4 C,4 | B,,8 G,,16 | z8 D8 C8 | B,4 C4 B,4 A,4 G,4 F,4 | %92
w: o de-|scen- * * * * *|* sum,|o de-|scen- * * * * *|
 E,8 C,16 | z8 G,8 F,8 | E,4 F,4 E,4 D,4 C,4 B,,4 | A,,12 G,,4 F,,8 | E,,8 G,,12 G,,4 | C,,16 z8 | %98
w: * sum,|o de-|scen- * * * * *|* sum pro-|fun- dis- si-|mum.|
 z24 | z24 | z24 | z24 | z24 | z24 |[M:4/4] z2 G,3 E,F,G, | E,E,D,E, C,>C, C,2 | z2 z G, G,G,A,B, | %107
w: ||||||Ia- cet su- per|fe- num in præ- se- pi- o,|qui su- per tro- num|
 C>C C2 z2 A,/B,/C/B,/ | D2 DC B,4 | A,4 z4 | z8 | z8 | z8 | z8 | z8 | z8 | z2 z G, D,3 C, | %117
w: glo- ri- æ se- * * *|* det in cæ-|lo.|||||||Ab- scon- di-|
 B,,B,, A,,/G,,/ A,,/B,,/ G,,>G,, G,,2 | z2 G,D, E,>E, E,F,/G,/ | %119
w: tur in vi- * li * sta- bu- lo,|sed * pro- di- tur ra- di-|
 A,/E,/^F,/G,/ A,/G,/F,/E,/ F,/A,/B,/C/ D/C/B,/A,/ | %120
w: an- * * * * * * * * * * * * * * *|
 B,/D,/E,/F,/ G,/F,/E,/D,/ E,/C,/D,/E,/ F,/G,/A,/B,/ | CC, G,>G, C,4 | z8 | z8 | z8 | z8 | z8 | %127
w: (an)- * * * * * * * * * * * * * * *|(an) te si- de- re.||||||
 z8 | z8 | z8 | z8 | z8 | z8 | z8 | z8 |[M:3/1] G,16- G,4 ^F,2 E,2 | D,16 z8 | z24 | %138
w: ||||||||Proh, * * *|||
 A,16- A,4 G,2 F,2 | E,16 z8 | ^C,8 D,8 E,8 | A,,16 A,,8 | z24 | D,16- D,4 C,2 B,,2 | A,,16 z8 | %145
w: proh, * * *||quan- ta ma-|jes- tas,||proh, * * *||
 ^F,,8 G,,8 A,,8 | D,,12 D,,4 D,,8 |[M:4/4] z8 | z8 | z8 | B,2 A,B, C>C C2 | z G,2 A,/B,/ A,3 G, | %152
w: quan- ta hu-|mi- li- tas.||||||
 G,4 z4 | z8 | z8 | z8 | z D CD/C/ B,B, A,B,/A,/ | G,4 z G, F,G,/F,/ | E,E, D,E,/D,/ C,4 | %159
w: ||||o, * * * * * * * *|* o, * * *||
 z4 z2 z C, | F,E, G,2 C,2 z C, | F,E, G,2 C,2 C,C, | G,,>A,, B,,C, D,3 D, | G,,8 |[M:3/1] z24 | %165
w: o|ve- re par- tum, o|ve- re par- tum De- o|hu- mi- ne di- gnis- si-|mum.||
 z24 | z24 | z24 | z24 | z24 | z24 | z24 | z24 | z24 | z24 | z24 | z24 | z24 | z24 | z24 | z24 | %181
w: ||||||||||||||||
 z24 | z24 | z24 | z24 | z24 | z24 |[M:4/4] z2 E,2 E,4- | E,2 ^D,^C, D,2 D,D, | %189
w: ||||||Nos quo-|* que de- vo- ti et|
 E,3 E, B,,2 B,,B,, | E,^D,E,A,, B,,>B,, B,,2 | z2 z B,, E,2 E,B,, | C,2 D,D, G,,>G,, G,,B,, | %193
w: hu- mi- les a- do-|re- mus cum pas- to- ri- bus.|Lau- de- mus, lau-|de- mus cum an- ge- lis, lau-|
 C,2 D,D, G,,2 G,,D, | G,/A,/G,/F,/ E,/C,/D,/E,/ F,/G,/F,/E,/ D,/B,,/C,/D,/ | %195
w: de- mus, lau- de- mus, lau|de- * * * * * * * * * * * * * * *|
 E,/F,/E,/D,/ C,/A,,/B,,/C,/ D,/E,/D,/C,/ B,,/G,,/A,,/B,,/ | C,2 C,B,, C,2 D,D, | %197
w: (e)- * * * * * * * * * * * * * * *|* mus, lau- de- mus cum|
 G,,>G,, G,,^F,, G,,2 A,,A,, | D,2 D,2 z2 z E, | C,C, z D, B,,B,, z C, | %200
w: an- ge- lis, lau- de- mus, lau-|de- mus, lau-|de- mus, lau- de- mus, lau-|
 A,,A,, z B,, G,,2 G,,^F,, | G,,2 A,,A,, D,>D, D,B,, | C,2 D,D, G,,2 G,,2 | G,G,G,G, D,2 D,2 | %204
w: de- mus, lau- de- mus, lau-|de- mus cum an- ge- lis, lau-|de- mus, lau- de- mus|re- gem Sa- lo- mo- nem,|
 z D,D,D, B,,>B,, A,,2 | E,3 E, A,,4 | z2 z A,, D,D, D,>C, | %207
w: in di- a- de- ma- te|car- ne- o,|quo il- lum co- ro-|
 B,,/C,/D,/C,/ B,,/C,/A,,/B,,/ G,,G,, z G, | CC C>B, A,/B,/C/B,/ A,/B,/G,/A,/ | %209
w: na- * * * * * * * * vit, quo|il- lum co- ro- na- * * * * * * *|
 ^F,F, z D, G,G, G,>=F, | E,E, z2 z2 z A, | DD D>C B,/C/D/C/ B,/C/A,/B,/ | G,G, z2 z2 G,G, | %213
w: * vit, quo il- lum co- ro-|na- vit, quo|il- lum co- ro- na- * * * * * * *|* vit, co- ro-|
 C,B,,C,G,, D,2 D,2 | B,,4 B,,2 ^C,2 | D,8 | G,,16 |] %217
w: na- vit Ma- ter su- a|Vir- go Ma-|ri-|a.|
V:4
 x24 | x24 | x24 |[M:3/1] G,,24- | G,,8 A,,8 B,,8 | C,8 D,16 | G,,24- | G,,8 A,,8 B,,8 | C,8 D,16 | %9
w: |||||7 *|||7 *|
 G,,24 | G,,24 | G,,24 | D,24 | D,24- | D,8 E,8 ^F,8 | G,8 A,16 | D,8 E,8 ^F,8 | G,8 A,16 | D,24 | %19
w: ||||||7 *||7 *||
 D,24 | D,24 | G,,24 | G,,8 A,,8 B,,8 | C,8 D,16 | G,,24 | G,,8 A,,8 B,,8 | C,8 D,16 | G,,24 || %28
w: ||||7 *|||7 *||
 z8 G,8 G,8 | ^F,16 F,8 | z8 G,8 G,8 | ^F,8 E,16 | D,16 D,8 | z8 G,8 G,8 | ^F,16 F,8 | z8 G,8 G,8 | %36
w: |||* 7```6|||||
 ^F,8 E,16 | D,16 D,8 | D,16 C,8 | B,,12 C,4 D,8 | E,16 D,8 | C,12 D,4 E,8 | F,16 E,8 | D,24 | %44
w: * 7````6||* 6|* * 7|* 6|* * 7|||
 A,,8 E,16 | A,,16 z8 | A,,12 B,,4 ^C,8 | D,16 C,8 | B,,12 C,4 D,8 | E,16 D,8 | C,24 | G,,8 D,16 | %52
w: 6 4`````3|||* 6|* * 7|* 6||* 4`````3|
 G,,24 |[M:4/4] G,,8 | B,,4 C,4- | C,2 B,,2 A,,4 | G,,8 | E,4 C,4 | C,4 A,,2 B,,2 | E,,4 z4 | %60
w: ||``6```5````` *|* * `7```5|||* 7 *||
 E,6 E,2 | E,8 | D,6 D,2 | C,6 C,2 |[M:3/1] B,,24 | G,,8 G,,8 G,,8 | D,16 D,8 | z8 z8 A,,8 | %68
w: |5````````6|7````````6 *|7`````5 *|||x *||
 E,16 E,8 | A,,16 A,,8 | B,,24 | E,,16 z8 | C,8 C,8 C,8 | G,16 G,8 | z8 z8 D,8 | A,16 A,8 | %76
w: ||4````3|||||z *|
 D,16 D,8 | E,24 | A,,24 | A,,24 | D,16 D,8 | B,,12 A,,4 G,,8 | ^F,,8 A,,16 | D,,16 D,8 | %84
w: |4```````3|||||||
 G,16 G,8 | D,16 G,,8 | G,,8 A,,16 | D,24 | D,24 | G,,24 | D,24 | G,24 | C,24 | G,,24 | C,24 | %95
w: |* 6|X5 4`````3|||||||||
 A,,12 G,,4 F,,8 | E,,8 G,,16 | C,,16 C,8 | G,,24 | C,24 | F,24 | C,16 F,,8 | F,,8 G,,16 | C,24 | %104
w: ||||||* 6|&5 4``````3||
[M:4/4] C,8 | C,8 | C,6 B,,2 | A,,4 F,4 | D,4 E,4 | A,,8 | E,4 F,4 | F,,4 F,,4 | _B,,4 C,4 | %113
w: ||||||6``z`5 *|||
 F,,4 F,4 | ^C,4 D,4 | D,4 B,,4 | C,4 D,4 | G,,4 G,,4- | G,,4 G,,4 | G,,4 C,4 | A,,4 D,4 | %121
w: |5 *|||||||
 G,,4 C,4 | E,,2 G,,2 C,4 | C4 B,4 | A,4 A,4 | G,2 G,G, D,4 | E,3 D, C,2 A,,2 | B,,4 E,,4 | %128
w: |||6 *||||
 E,4 ^D,4 | E,4 D,2 C,2 | B,,2 G,,2 A,,2 B,,C, | D,2 B,,2 C,2 A,,2 | D,2 B,,2 E,2 D,2 | %133
w: |* x *|x * * * *|x * * z|* z * *|
 C,2 B,,C, D,4 | G,,4 z4 |[M:3/1] G,24 | D,24 | z24 | A,24 | E,24 | ^C,8 D,8 E,8 | A,,16 A,,8 | %142
w: |||x|||x|||
 z24 | D,24 | A,,24 | ^F,,8 G,,8 A,,8 | D,,16 D,,8 |[M:4/4] z4 ^F,4 | G,4 C,2 A,,2 | B,,4 E,,4 | %150
w: |x|||||||
 E,4 C,4 | B,,4 D,4 | G,,4 G,,4 | C,4 C,2 B,,2 | A,,4 D,2 G,,2 | A,,4 D,,4 | D2 C2 B,2 A,2 | %157
w: |||||||
 G,6 F,2 | E,2 D,2 C,4- | C,6 z C, | F,E, G,2 C,2 z C, | F,E, G,2 C,2 C,C, | G,,>A,, B,,C, D,4 | %163
w: |||* * 4```3 * *||* * * * `4`````3|
 G,,8 |[M:3/1] G,,24- | G,,8 A,,8 B,,8 | C,8 D,16 | G,,24- | G,,8 A,,8 B,,8 | C,8 D,16 | G,,24 | %171
w: |||7 *|||7 *||
 G,,24 | D,24- | D,8 E,8 ^F,8 | G,8 A,16 | D,8 E,8 ^F,8 | G,8 A,16 | D,24 | D,24 | D,24 | G,,24- | %181
w: ||* 7 *||* 7 *||||||
 G,,8 A,,8 B,,8 | C,8 D,16 | G,,24 | G,,8 A,,8 B,,8 | C,8 D,16 | G,,24 |[M:4/4] z2 E,2 E,4- | %188
w: |7 *|||7 *|||
 E,2 ^D,^C, D,4 | E,4 B,,2 B,,B,, | E,^D, E,A,, B,,4 | z2 z B,, E,2 E,B,, | C,2 D,2 G,,3 B,, | %193
w: $2 * * %3||* * z 7 *|||
 C,2 D,2 G,,4 | G,2 E,2 F,2 D,2 | E,2 C,2 D,2 B,,2 | C,2 C,B,, C,2 D,2 | G,,3 ^F,, G,,2 A,,2 | %198
w: |||||
 D,4 B,,2 E,2 | C,2 D,2 B,,2 C,2 | A,,2 B,,2 G,,2 G,,^F,, | G,,2 A,,2 D,3 B,, | C,2 D,2 G,,4 | %203
w: * z *|6 * * *|x`6 * 6 * *|||
 G,4 D,4 | D,4 B,,2 A,,2 | E,4 A,,4 | A,,4 D,4 | B,,4 G,,2 G,2 | C4 A,4 | ^F,2 D,2 G,4 | E,4 A,4 | %211
w: |* x`6 *|4``````3 *|||||6 z|
 D4 B,4 | G,4 z2 G,G, | C,B,, C,G,, D,4 | B,,4 B,,2 ^C,2 | D,8 | G,,16 |] %217
w: ||||4``````````3||

